apps/praktika/stuff/social/telegram.svg

<?xml version="1.0" encoding="UTF-8"?>
<svg width="23px" height="20px" viewBox="0 0 23 20" version="1.1" xmlns="http://www.w3.org/2000/svg" xmlns:xlink="http://www.w3.org/1999/xlink">
    <!-- Generator: Sketch 48.2 (47327) - http://www.bohemiancoding.com/sketch -->
    <title>Page 1 Copy 3</title>
    <desc>Created with Sketch.</desc>
    <defs>
        <polygon id="path-1" points="0 0 23 0 23 20 0 20"></polygon>
    </defs>
    <g id="desctop" stroke="none" stroke-width="1" fill="none" fill-rule="evenodd">
        <g id="Page-1-Copy-3">
            <mask id="mask-2" fill="white">
                <use xlink:href="#path-1"></use>
            </mask>
            <g id="Clip-2"></g>
            <path d="M18.5154337,20 C18.3359287,20 18.1574859,19.9486658 18.0045349,19.8473249 L12.2213794,16.0338393 L9.11972158,18.2038914 C8.87663877,18.3739729 8.56314995,18.416604 8.28031202,18.3186559 C7.99823278,18.2201177 7.78428349,17.9930964 7.707808,17.7113481 L6.15007507,11.9732708 L0.5849657,9.90470711 C0.234756506,9.77445384 0.0024470268,9.44830435 1.92334242e-05,9.08409671 C-0.00240855995,8.71929902 0.225197069,8.3903468 0.573737156,8.25552064 L21.7333221,0.0703633226 C21.8293716,0.0305350268 21.931339,0.00752312254 22.0333063,0.00177014648 C22.0700267,-0.000590048827 22.106747,-0.000590048827 22.1436192,0.00177014648 C22.3557476,0.0138661474 22.5643861,0.0979481052 22.7267448,0.252983434 C22.7440428,0.269062265 22.7599752,0.285288608 22.7748454,0.302547536 C22.9098914,0.452419938 22.9834839,0.634450001 22.9975955,0.820610406 C23.0012372,0.867224263 23.0006302,0.914428169 22.9965333,0.961779587 C22.9934986,0.995707395 22.9887947,1.02919267 22.9816631,1.06253042 L19.4099238,19.280878 C19.3524155,19.5736897 19.1478739,19.81856 18.8645807,19.9325869 C18.7525988,19.9781682 18.6334851,20 18.5154337,20 Z M12.7293951,14.229765 L17.8807175,17.6265286 L20.6599339,3.45104807 L10.6222222,12.8404951 L12.7049655,14.2136862 C12.713311,14.2188491 12.7210496,14.2246021 12.7293951,14.229765 Z M8.4410016,13.474355 L9.13034318,16.0154003 L10.6169114,14.9754392 L8.67103502,13.692083 C8.58029624,13.6327831 8.50260685,13.559027 8.4410016,13.474355 Z M3.41531757,9.0610848 L7.23651261,10.4814798 C7.51039805,10.5834108 7.71660875,10.8070393 7.79202208,11.0824446 L8.27621512,12.8680798 C8.29867221,12.6618578 8.39472178,12.4683218 8.55070751,12.3224322 L18.1148478,3.37552182 L3.41531757,9.0610848 Z" id="Fill-1" fill="#000000" mask="url(#mask-2)"></path>
        </g>
    </g>
</svg>

<svg width="23" height="20" xmlns="http://www.w3.org/2000/svg" xmlns:xlink="http://www.w3.org/1999/xlink"><defs><path id="a" d="M0 0h23v20H0z"/></defs><g fill="none" fill-rule="evenodd"><mask id="b" fill="#fff"><use xlink:href="#a"/></mask><path d="M18.515 20a.925.925 0 0 1-.51-.153l-5.784-3.813-3.101 2.17a.934.934 0 0 1-.84.115.895.895 0 0 1-.572-.608L6.15 11.973.585 9.905A.886.886 0 0 1 0 9.085a.886.886 0 0 1 .574-.83L21.734.07a.92.92 0 0 1 .41-.068.918.918 0 0 1 .63.3.868.868 0 0 1 .208.76L19.41 19.282a.89.89 0 0 1-.545.652.927.927 0 0 1-.35.067zm-5.786-5.77l5.152 3.397L20.66 3.45l-10.038 9.39 2.083 1.373.024.016zm-4.288-.756l.69 2.541 1.486-1.04-1.946-1.283a.877.877 0 0 1-.23-.218zM3.415 9.061l3.822 1.42c.273.102.48.326.555.601l.484 1.786a.877.877 0 0 1 .275-.546l9.564-8.946-14.7 5.685z" fill="#000" mask="url(#b)"/></g></svg>
